web-magabank/image/home/icon-saque.svg

<svg width="16" height="17" viewBox="0 0 16 17" fill="none" xmlns="http://www.w3.org/2000/svg">
<path fill-rule="evenodd" clip-rule="evenodd" d="M12.6498 4.88791C12.8822 4.88791 12.9476 4.57373 12.7382 4.47882L4.55957 0.852625C4.06212 0.630074 3.4763 0.852625 3.25375 1.35335L0.390099 7.77447C0.167552 8.27192 0.390099 8.85775 0.890828 9.08029L2.54029 9.79376C2.74647 9.88539 2.98211 9.73484 2.98211 9.50903V6.78283C2.98211 5.73883 3.82975 4.89118 4.87376 4.89118H12.6498V4.88791ZM14.7902 5.77811H4.87047C4.31738 5.77811 3.86902 6.22647 3.86902 6.77956V13.7865C3.86902 14.3396 4.31738 14.788 4.87047 14.788H6.20248C6.16975 14.5916 6.15339 14.392 6.15339 14.1891C6.15339 13.96 6.1763 13.7374 6.21557 13.5181H5.14211V10.1636H14.5218V13.5149H13.4451C13.4843 13.7341 13.5072 13.9567 13.5072 14.1858C13.5072 14.3887 13.4909 14.5883 13.4582 14.7847H14.7902C15.3433 14.7847 15.7916 14.3363 15.7916 13.7832V6.77956C15.7916 6.22647 15.3433 5.77811 14.7902 5.77811ZM14.5218 8.09848H5.14211V7.04792H14.5218V8.09848ZM7.25961 14.1858C7.25961 12.7654 8.41162 11.6134 9.83199 11.6134C11.2524 11.6134 12.4044 12.7654 12.4044 14.1858C12.4044 15.6061 11.2524 16.7581 9.83199 16.7581C8.41162 16.7581 7.25961 15.6061 7.25961 14.1858ZM10.1429 15.4752C10.3131 15.4294 10.4604 15.3378 10.5716 15.2003C10.8825 14.824 10.7614 14.2709 10.3294 14.032C10.1887 13.9534 10.0447 13.8945 9.89744 13.8356C9.81235 13.7996 9.73381 13.757 9.66181 13.7014C9.52108 13.5901 9.55053 13.4069 9.71417 13.3349C9.75999 13.3152 9.80908 13.3087 9.85817 13.3054C10.048 13.2956 10.228 13.3283 10.4014 13.4134C10.4865 13.4527 10.516 13.4396 10.5454 13.3512C10.575 13.2685 10.5992 13.1805 10.6229 13.0944L10.6305 13.0665C10.6502 13.001 10.6273 12.9585 10.5651 12.9323C10.4538 12.8832 10.3393 12.8505 10.2214 12.8309C10.1426 12.8194 10.1033 12.8136 10.0838 12.7909C10.0644 12.7684 10.0644 12.7291 10.0644 12.6509C10.0644 12.5396 10.0644 12.484 10.0365 12.4561C10.0087 12.4283 9.95308 12.4283 9.84181 12.4283H9.7469C9.64217 12.4316 9.62581 12.4479 9.62253 12.5527V12.6934C9.62253 12.8265 9.61946 12.8277 9.50039 12.8722L9.48835 12.8767C9.16762 12.9945 8.96799 13.2105 8.94835 13.5607C8.92871 13.8716 9.08908 14.0811 9.34435 14.2316C9.454 14.2992 9.57362 14.3469 9.69374 14.3948C9.74213 14.4141 9.7906 14.4335 9.83854 14.4541C9.90399 14.4803 9.9629 14.5131 10.0185 14.5589C10.1789 14.6898 10.1494 14.9091 9.95963 14.9909C9.85817 15.0367 9.75017 15.0465 9.64217 15.0334C9.47199 15.0138 9.31162 14.968 9.15781 14.8894C9.06617 14.8436 9.03999 14.8534 9.01053 14.9516C8.98435 15.0334 8.96144 15.1185 8.93853 15.2036C8.9058 15.3181 8.91889 15.3443 9.02689 15.3967C9.16435 15.4621 9.31162 15.4981 9.46217 15.5211C9.57999 15.5407 9.58653 15.5472 9.58653 15.6683V15.8352C9.58653 15.904 9.61926 15.9465 9.69126 15.9465C9.77308 15.9498 9.8549 15.9498 9.93672 15.9465C10.0022 15.9465 10.0382 15.9105 10.0382 15.8418C10.0382 15.8154 10.0385 15.7893 10.0389 15.7635C10.0396 15.7126 10.0403 15.6626 10.0382 15.6127C10.0349 15.5341 10.0676 15.4949 10.1429 15.4752Z" fill="white"/>
</svg>

<svg width="16" height="17" fill="none" xmlns="http://www.w3.org/2000/svg"><path fill-rule="evenodd" clip-rule="evenodd" d="M12.65 4.888c.232 0 .298-.314.088-.41L4.56.854a.988.988 0 00-1.306.5L.39 7.774a.988.988 0 00.5 1.306l1.65.714a.314.314 0 00.442-.285V6.783c0-1.044.848-1.892 1.892-1.892h7.776v-.003zm2.14.89H4.87c-.553 0-1.001.448-1.001 1.002v7.006c0 .554.448 1.002 1.001 1.002h1.332a3.637 3.637 0 01.014-1.27H5.142v-3.354h9.38v3.35h-1.077a3.64 3.64 0 01.013 1.27h1.332c.553 0 1.002-.448 1.002-1V6.78c0-.554-.449-1.002-1.002-1.002zm-.268 2.32h-9.38v-1.05h9.38v1.05zM7.26 14.186a2.573 2.573 0 115.145 0 2.573 2.573 0 01-5.145 0zm2.883 1.29a.813.813 0 00.429-.276c.31-.376.19-.93-.243-1.168a3.639 3.639 0 00-.432-.196 1.047 1.047 0 01-.235-.135c-.14-.11-.111-.294.052-.366a.434.434 0 01.144-.03c.19-.01.37.023.543.108.085.04.115.027.144-.062.03-.083.054-.17.078-.257l.008-.027c.02-.066-.004-.108-.066-.135a1.425 1.425 0 00-.344-.101c-.078-.012-.118-.017-.137-.04-.02-.023-.02-.062-.02-.14 0-.111 0-.167-.027-.195-.028-.028-.084-.028-.195-.028h-.095c-.105.004-.121.02-.124.125v.14c0 .133-.004.135-.123.18l-.012.004c-.32.117-.52.333-.54.684-.02.31.141.52.396.67.11.068.23.116.35.164.048.02.097.039.145.06a.664.664 0 01.18.104c.16.13.13.35-.06.432a.588.588 0 01-.317.042c-.17-.02-.33-.065-.484-.144-.092-.045-.118-.036-.147.063-.027.081-.05.166-.072.252-.033.114-.02.14.088.193.137.065.285.101.435.124.118.02.125.026.125.147v.167c0 .069.032.111.104.111.082.004.164.004.246 0 .065 0 .101-.035.101-.104v-.079c.002-.05.002-.1 0-.15-.003-.079.03-.118.105-.138z" fill="#fff"/></svg>
